build/images/libra.svg

<?xml version="1.0" encoding="UTF-8"?>
<svg width="24px" height="23px" viewBox="0 0 24 23" version="1.1" xmlns="http://www.w3.org/2000/svg" xmlns:xlink="http://www.w3.org/1999/xlink">
    <!-- Generator: sketchtool 63.1 (101010) - https://sketch.com -->
    <title>22E0483E-CF6E-49E6-8AA5-47235DBFEB3D</title>
    <desc>Created with sketchtool.</desc>
    <g id="Page-1" stroke="none" stroke-width="1" fill="none" fill-rule="evenodd">
        <g id="Kupa-shop---product" transform="translate(-825.000000, -2468.000000)" fill="#333333" fill-rule="nonzero">
            <g id="product-card" transform="translate(670.000000, 1988.000000)">
                <g id="libra" transform="translate(155.000000, 480.000000)">
                    <path d="M23.921061,11.6065782 L23.9006897,11.6167639 L20.4630239,3.06079576 L22.031618,3.06079576 C22.31287,3.06079576 22.5409019,2.83276393 22.5409019,2.55151194 C22.5409019,2.27025995 22.31287,2.04222812 22.031618,2.04222812 L12.4468966,2.04222812 L12.4468966,0.570397878 C12.4468966,0.289145889 12.2188647,0.0611140584 11.9376127,0.0611140584 C11.6563607,0.0611140584 11.4283289,0.289145889 11.4283289,0.570397878 L11.4283289,2.03713528 L1.84870027,2.03713528 C1.56744828,2.03713528 1.33941645,2.26516711 1.33941645,2.5464191 C1.33941645,2.82767109 1.56744828,3.05570292 1.84870027,3.05570292 L3.48350133,3.05570292 L0.0407427056,11.6065782 C0.0152785146,11.6662281 0.00146419098,11.7302069 0,11.7950133 C0,14.1337719 1.89593634,16.0297082 4.23469496,16.0297082 C6.57345358,16.0297082 8.46938992,14.1337719 8.46938992,11.7950133 C8.46792573,11.7302069 8.45411141,11.6662281 8.42864721,11.6065782 L4.99098143,3.05061008 L11.4283289,3.05061008 L11.4283289,18.7976658 C8.99904509,18.981008 7.09941645,20.457931 7.09941645,22.2455172 C7.09941645,22.5267692 7.32744828,22.7548011 7.60870027,22.7548011 L16.2665252,22.7548011 C16.5477772,22.7548011 16.775809,22.5267692 16.775809,22.2455172 C16.775809,20.457931 14.8761804,18.981008 12.4468966,18.7976658 L12.4468966,3.05061008 L18.9504509,3.05061008 L15.5331565,11.6065782 C15.5076923,11.6662281 15.493878,11.7302069 15.4924138,11.7950133 C15.4924138,14.1337719 17.3883501,16.0297082 19.7271088,16.0297082 C22.0658674,16.0297082 23.9618037,14.1337719 23.9618037,11.7950133 C23.9603395,11.7302069 23.9465252,11.6662281 23.921061,11.6065782 Z M4.23214854,15.0187798 C2.65476923,15.0166154 1.31140584,13.871618 1.05931034,12.3144828 L7.38461538,12.3144828 C7.1337931,13.8640424 5.80182493,15.0066844 4.23214854,15.0187798 Z M7.20127321,11.2959151 L1.27320955,11.2959151 L4.24233422,3.9062069 L7.20127321,11.2959151 Z M15.6655703,21.7362334 L8.20456233,21.7362334 C8.58143236,20.6412732 10.134748,19.7958621 11.9325199,19.7958621 C13.7302918,19.7958621 15.2887003,20.6412732 15.6655703,21.7362334 Z M19.704191,3.91129973 L22.66313,11.2959151 L16.7350663,11.2959151 L19.704191,3.91129973 Z M19.704191,15.0187798 L19.704191,15.0238727 C18.1328594,15.0113316 16.8003183,13.8660796 16.5517241,12.3144828 L22.8770292,12.3144828 C22.6249337,13.871618 21.2815703,15.0166154 19.704191,15.0187798 Z" id="Shape"></path>
                </g>
            </g>
        </g>
    </g>
</svg>

<svg width="24" height="23" xmlns="http://www.w3.org/2000/svg"><g id="Page-1" stroke="none" stroke-width="1" fill="none" fill-rule="evenodd"><g id="Kupa-shop---product" transform="translate(-825 -2468)" fill="#333" fill-rule="nonzero"><g id="product-card" transform="translate(670 1988)"><g id="libra" transform="translate(155 480)"><path d="M23.921 11.607l-.02.01-3.438-8.556h1.569a.51.51 0 000-1.019h-9.585V.57a.51.51 0 00-1.019 0v1.467h-9.58a.51.51 0 000 1.019h1.636L.04 11.606a.51.51 0 00-.041.189 4.235 4.235 0 108.47 0 .51.51 0 00-.041-.188L4.99 3.05h6.437v15.747C9 18.98 7.1 20.458 7.1 22.246c0 .28.228.509.51.509h8.658a.51.51 0 00.509-.51c0-1.787-1.9-3.264-4.33-3.447V3.05h6.504l-3.417 8.556a.51.51 0 00-.04.188 4.235 4.235 0 108.469 0 .51.51 0 00-.04-.188zM4.232 15.019a3.219 3.219 0 01-3.173-2.705h6.326a3.219 3.219 0 01-3.153 2.705zm2.97-3.723h-5.93l2.97-7.39 2.958 7.39zm8.464 10.44H8.205c.376-1.095 1.93-1.94 3.728-1.94 1.797 0 3.356.845 3.733 1.94zm4.038-17.825l2.96 7.385h-5.929l2.97-7.385zm0 11.108v.005a3.219 3.219 0 01-3.152-2.71h6.325a3.219 3.219 0 01-3.173 2.705z" id="Shape"/></g></g></g></g></svg>
